X:0933
M:6/8
L:1/8
Q:3/8=100
K:G
g|edd dgg|dBd d2=f|edd dgg|BBB A2g|edd dgg|Bdd deg|B2G ABc|B2G G2|]

